seregacthtuf/sake-bottle.svg

<?xml version="1.0" encoding="UTF-8" standalone="no"?>
<!-- Generator: Adobe Illustrator 28.4.1, SVG Export Plug-In . SVG Version: 6.00 Build 0)  -->

<svg
   version="1.1"
   id="Слой_1"
   x="0px"
   y="0px"
   viewBox="0 0 512 512"
   style="enable-background:new 0 0 512 512;"
   xml:space="preserve"
   sodipodi:docname="sake-bottle.svg"
   inkscape:version="1.4 (86a8ad7, 2024-10-11)"
   xmlns:inkscape="http://www.inkscape.org/namespaces/inkscape"
   xmlns:sodipodi="http://sodipodi.sourceforge.net/DTD/sodipodi-0.dtd"
   xmlns="http://www.w3.org/2000/svg"
   xmlns:svg="http://www.w3.org/2000/svg"><defs
   id="defs8">
		
	
		
	
		
	
			
		
			
		</defs><sodipodi:namedview
   id="namedview8"
   pagecolor="#ffffff"
   bordercolor="#000000"
   borderopacity="0.25"
   inkscape:showpageshadow="2"
   inkscape:pageopacity="0.0"
   inkscape:pagecheckerboard="0"
   inkscape:deskcolor="#d1d1d1"
   inkscape:zoom="1.0813762"
   inkscape:cx="315.33892"
   inkscape:cy="249.21947"
   inkscape:window-width="1920"
   inkscape:window-height="1001"
   inkscape:window-x="-9"
   inkscape:window-y="-9"
   inkscape:window-maximized="1"
   inkscape:current-layer="Слой_1" />
<style
   type="text/css"
   id="style1">
	.st0{fill:#FFFFFF;}
</style>

<path
   d="M 0,4.9999996e-7 H 512 V 512 H 0 Z"
   fill="#000000"
   fill-opacity="1"
   id="path1-8"
   inkscape:label="path2" /><g
   id="g8"
   style="enable-background:new 0 0 512 512"
   inkscape:label="g2">
	<path
   id="path1"
   class="st0"
   d="M 163.30078 30.599609 C 159.90078 30.599609 157.19922 33.299609 157.19922 36.599609 C 157.29922 37.199609 155.59922 64.599609 155.69922 65.099609 C 155.89922 68.099609 158.59961 70.599609 161.59961 70.599609 L 195.69922 70.599609 C 196.29922 70.599609 196.9 70.500781 197.5 70.300781 C 200 69.500781 201.69922 67.1 201.69922 64.5 L 200.09961 36.699219 C 200.09961 33.299219 197.3 30.599609 194 30.599609 L 163.30078 30.599609 z M 158.90039 86.400391 C 159.50039 130.90039 154.80039 160.79961 148.90039 176.09961 C 143.00039 194.69961 140.80078 206.20078 127.80078 238.80078 C 114.80078 271.40078 114.80078 298.40039 114.80078 298.40039 L 114.80078 311.69922 L 242.69922 311.69922 L 242.69922 298.40039 C 242.69922 298.40039 242.7 271.40078 229.5 238.80078 C 216.5 206.20078 214.30039 194.69961 208.40039 176.09961 C 202.50039 160.89961 197.80039 131.00039 198.40039 86.400391 C 197.50039 86.500391 196.59961 86.599609 195.59961 86.599609 L 161.69922 86.599609 C 160.79922 86.599609 159.80039 86.500391 158.90039 86.400391 z M 114.80078 327.69922 L 114.80078 446 L 242.69922 446 L 242.69922 327.69922 L 114.80078 327.69922 z M 132.30078 346.59961 C 132.50078 346.69961 147.69922 355.09961 178.69922 355.09961 C 209.69922 355.09961 224.89961 346.69961 225.09961 346.59961 L 233.09961 360.40039 C 232.69961 360.60039 228.20078 363.20078 219.30078 365.80078 L 223.90039 365.80078 L 223.90039 381.80078 L 214.19922 381.80078 L 214.19922 434.80078 L 198.19922 434.80078 L 198.19922 381.80078 L 186.80078 381.80078 L 186.80078 392.90039 L 170.80078 392.90039 L 170.80078 381.80078 L 158 381.80078 L 158 434.80078 L 142 434.80078 L 142 381.80078 L 133.5 381.80078 L 133.5 365.80078 L 138.09961 365.80078 C 129.29961 363.20078 124.70078 360.60039 124.30078 360.40039 L 128.30078 353.5 L 132.30078 346.59961 z M 355 416.90039 C 345.2 416.90039 336 417.49961 329 418.59961 C 325.3 419.19961 322.29961 419.89922 320.09961 420.69922 C 314.09961 422.89922 312.80078 426.60078 312.80078 429.30078 L 312.80078 429.69922 C 312.60078 431.99922 311.90078 452.6 352.80078 457 C 354.00078 457.1 355.89922 457.19961 357.19922 457.09961 C 398.19922 453.69961 397.29922 431.99922 397.19922 429.69922 L 397.19922 429.30078 C 397.19922 426.60078 395.90039 422.89922 389.90039 420.69922 C 387.70039 419.89922 384.7 419.19961 381 418.59961 C 374 417.49961 364.8 416.90039 355 416.90039 z M 355.09961 423.80078 C 374.59961 423.80078 390.30078 426.20078 390.30078 429.30078 C 390.30078 429.70078 389.89961 430.19922 389.09961 430.69922 C 386.29961 432.29922 378.70078 433.70078 368.80078 434.30078 C 364.60078 434.60078 359.89961 434.69922 355.09961 434.69922 C 350.19961 434.69922 345.60039 434.50078 341.40039 434.30078 C 336.40039 434.00078 332.09961 433.50039 328.59961 432.90039 C 325.09961 432.30039 322.49961 431.49922 321.09961 430.69922 C 320.29961 430.29922 319.90039 429.80078 319.90039 429.30078 C 319.90039 426.30078 335.69961 423.80078 355.09961 423.80078 z M 114.69922 462 L 114.69922 468.19922 C 114.69922 475.49922 120.69961 481.5 128.09961 481.5 L 229.30078 481.5 C 236.70078 481.5 242.69922 475.59922 242.69922 468.19922 L 242.69922 462 L 114.69922 462 z M 334.90039 469.5 C 332.00039 470.7 330.30078 472.30039 330.30078 473.90039 C 330.30078 478.10039 341.39961 481.5 355.09961 481.5 C 368.79961 481.5 379.90039 478.10039 379.90039 473.90039 C 379.90039 472.40039 378.40039 470.89922 375.90039 469.69922 C 370.80039 470.89922 364.89961 471.80078 358.09961 472.30078 C 357.39961 472.40078 356.49961 472.40039 355.59961 472.40039 C 354.39961 472.40039 353 472.40078 352 472.30078 C 345.7 471.70078 340.00039 470.7 334.90039 469.5 z " />
	
	
	
	
	
</g></svg>

<?xml version="1.0" encoding="utf-8"?>
<!-- Generator: Adobe Illustrator 28.4.1, SVG Export Plug-In . SVG Version: 6.00 Build 0)  -->
<svg version="1.1" id="Слой_1" xmlns="http://www.w3.org/2000/svg" xmlns:xlink="http://www.w3.org/1999/xlink" x="0px" y="0px"
	 viewBox="0 0 512 512" style="enable-background:new 0 0 512 512;" xml:space="preserve">
<style type="text/css">
	.st0{fill:#FFFFFF;}
</style>
<g>
	<path class="st0" d="M242.7,298.4v13.3H114.8v-13.3c0,0,0-27,13-59.6s15.2-44.1,21.1-62.7c5.9-15.3,10.6-45.2,10-89.7
		c0.9,0.1,1.9,0.2,2.8,0.2h33.9c1,0,1.9-0.1,2.8-0.2c-0.6,44.6,4.1,74.5,10,89.7c5.9,18.6,8.1,30.1,21.1,62.7
		C242.7,271.4,242.7,298.4,242.7,298.4z"/>
	<path class="st0" d="M242.7,462v6.2c0,7.4-6,13.3-13.4,13.3H128.1c-7.4,0-13.4-6-13.4-13.3V462H242.7z"/>
	<g>
		<g>
			<path class="st0" d="M114.8,327.7V446h127.9V327.7H114.8z M223.9,365.8v16h-9.7v53h-16v-53h-11.4v11.1h-16v-11.1H158v53h-16v-53
				h-8.5v-16h4.6c-8.8-2.6-13.4-5.2-13.8-5.4l4-6.9l4-6.9c0.2,0.1,15.4,8.5,46.4,8.5s46.2-8.4,46.4-8.5l8,13.8
				c-0.4,0.2-4.9,2.8-13.8,5.4H223.9z"/>
		</g>
	</g>
	<g>
		<g>
			<path class="st0" d="M201.7,64.5c0,2.6-1.7,5-4.2,5.8c-0.6,0.2-1.2,0.3-1.8,0.3h-34.1c-3,0-5.7-2.5-5.9-5.5
				c-0.1-0.5,1.6-27.9,1.5-28.5c0-3.3,2.7-6,6.1-6H194c3.3,0,6.1,2.7,6.1,6.1L201.7,64.5z"/>
		</g>
	</g>
	<path class="st0" d="M379.9,473.9c0,4.2-11.1,7.6-24.8,7.6c-13.7,0-24.8-3.4-24.8-7.6c0-1.6,1.7-3.2,4.6-4.4
		c5.1,1.2,10.8,2.2,17.1,2.8c1,0.1,2.4,0.1,3.6,0.1c0.9,0,1.8,0,2.5-0.1c6.8-0.5,12.7-1.4,17.8-2.6
		C378.4,470.9,379.9,472.4,379.9,473.9z"/>
	<g>
		<path class="st0" d="M397.2,429.7v-0.4c0-2.7-1.3-6.4-7.3-8.6c-2.2-0.8-5.2-1.5-8.9-2.1c-7-1.1-16.2-1.7-26-1.7s-19,0.6-26,1.7
			c-3.7,0.6-6.7,1.3-8.9,2.1c-6,2.2-7.3,5.9-7.3,8.6v0.4c-0.2,2.3-0.9,22.9,40,27.3c1.2,0.1,3.1,0.2,4.4,0.1
			C398.2,453.7,397.3,432,397.2,429.7z M389.1,430.7c-2.8,1.6-10.4,3-20.3,3.6c-4.2,0.3-8.9,0.4-13.7,0.4c-4.9,0-9.5-0.2-13.7-0.4
			c-5-0.3-9.3-0.8-12.8-1.4c-3.5-0.6-6.1-1.4-7.5-2.2c-0.8-0.4-1.2-0.9-1.2-1.4c0-3,15.8-5.5,35.2-5.5c19.5,0,35.2,2.4,35.2,5.5
			C390.3,429.7,389.9,430.2,389.1,430.7z"/>
	</g>
</g>
</svg>
